www/assets/icons/add_link.svg

<svg xmlns="http://www.w3.org/2000/svg" width="24" height="24" viewBox="0 0 24 24" fill='currentColor'><path d="M8 9.5h8v2H8zm12.1 1H22c0-2.76-2.24-5-5-5h-4v1.9h4c1.71 0 3.1 1.39 3.1 3.1m-16.2 0c0-1.71 1.39-3.1 3.1-3.1h4V5.5H7c-2.76 0-5 2.24-5 5s2.24 5 5 5h4v-1.9H7c-1.71 0-3.1-1.39-3.1-3.1m15.1 0h-2v3h-3v2h3v3h2v-3h3v-2h-3z"/></svg>

<svg width="24" height="24" viewBox="0 0 24 24" xmlns="http://www.w3.org/2000/svg" fill='currentColor'><path d="M8 9.5H16V11.5H8V9.5ZM20.1 10.5H22C22 7.74 19.76 5.5 17 5.5H13V7.4H17C18.71 7.4 20.1 8.79 20.1 10.5ZM3.9 10.5C3.9 8.79 5.29 7.4 7 7.4H11V5.5H7C4.24 5.5 2 7.74 2 10.5C2 13.26 4.24 15.5 7 15.5H11V13.6H7C5.29 13.6 3.9 12.21 3.9 10.5ZM19 10.5H17V13.5H14V15.5H17V18.5H19V15.5H22V13.5H19V10.5Z"/></svg>
